icons/cylinder-a.svg

<svg width="24" height="24" viewBox="0 0 24 24" fill="none" xmlns="http://www.w3.org/2000/svg">
<path fill-rule="evenodd" clip-rule="evenodd" d="M4.25 6.5C4.25 6.39585 4.3079 6.19232 4.64849 5.90812C4.98486 5.62743 5.51644 5.34102 6.23921 5.08592C7.67798 4.57812 9.71468 4.25 12 4.25C14.2853 4.25 16.322 4.57812 17.7608 5.08592C18.4836 5.34102 19.0151 5.62743 19.3515 5.90812C19.6921 6.19232 19.75 6.39585 19.75 6.5C19.75 6.60415 19.6921 6.80768 19.3515 7.09188C19.0151 7.37257 18.4836 7.65898 17.7608 7.91408C16.322 8.42188 14.2853 8.75 12 8.75C9.71468 8.75 7.67798 8.42188 6.23921 7.91408C5.51644 7.65898 4.98486 7.37257 4.64849 7.09188C4.3079 6.80768 4.25 6.60415 4.25 6.5ZM19.75 8.64235C19.3184 8.90528 18.8127 9.13351 18.26 9.32856C16.6224 9.90655 14.4091 10.25 12 10.25C9.5909 10.25 7.3776 9.90655 5.73998 9.32856C5.18733 9.13351 4.68163 8.90528 4.25 8.64235V15.3577C4.68163 15.0947 5.18733 14.8665 5.73998 14.6714C7.3776 14.0935 9.5909 13.75 12 13.75C14.4091 13.75 16.6224 14.0935 18.26 14.6714C18.8127 14.8665 19.3184 15.0947 19.75 15.3577V8.64235ZM21.25 17.5V6.5C21.25 5.77572 20.8322 5.19004 20.3125 4.75641C19.7887 4.31927 19.0755 3.95923 18.26 3.67144C16.6224 3.09345 14.4091 2.75 12 2.75C9.5909 2.75 7.3776 3.09345 5.73998 3.67144C4.92455 3.95923 4.21133 4.31927 3.68746 4.75641C3.1678 5.19004 2.75 5.77572 2.75 6.5V17.5C2.75 18.2243 3.1678 18.81 3.68746 19.2436C4.21133 19.6807 4.92455 20.0408 5.73998 20.3286C7.3776 20.9065 9.5909 21.25 12 21.25C14.4091 21.25 16.6224 20.9065 18.26 20.3286C19.0755 20.0408 19.7887 19.6807 20.3125 19.2436C20.8322 18.81 21.25 18.2243 21.25 17.5ZM19.75 17.5C19.75 17.3959 19.6921 17.1923 19.3515 16.9081C19.0151 16.6274 18.4836 16.341 17.7608 16.0859C16.322 15.5781 14.2853 15.25 12 15.25C9.71468 15.25 7.67798 15.5781 6.23921 16.0859C5.51644 16.341 4.98486 16.6274 4.64849 16.9081C4.3079 17.1923 4.25 17.3959 4.25 17.5C4.25 17.6041 4.3079 17.8077 4.64849 18.0919C4.98486 18.3726 5.51644 18.659 6.23921 18.9141C7.67798 19.4219 9.71468 19.75 12 19.75C14.2853 19.75 16.322 19.4219 17.7608 18.9141C18.4836 18.659 19.0151 18.3726 19.3515 18.0919C19.6921 17.8077 19.75 17.6041 19.75 17.5Z" fill="black"/>
</svg>

<svg xmlns="http://www.w3.org/2000/svg" fill="none" viewBox="0 0 24 24">
  <path fill="#000" fill-rule="evenodd" d="M4.25 6.5c0-.104.058-.308.398-.592.337-.28.868-.567 1.591-.822C7.678 4.578 9.715 4.25 12 4.25s4.322.328 5.76.836c.724.255 1.255.541 1.591.822.341.284.399.488.399.592 0 .104-.058.308-.398.592-.337.28-.868.567-1.591.822-1.439.508-3.476.836-5.761.836s-4.322-.328-5.76-.836c-.724-.255-1.255-.541-1.592-.822-.34-.284-.398-.488-.398-.592Zm15.5 2.142a7.997 7.997 0 0 1-1.49.687c-1.638.578-3.85.921-6.26.921-2.41 0-4.622-.343-6.26-.921a7.999 7.999 0 0 1-1.49-.687v6.716a7.998 7.998 0 0 1 1.49-.687c1.638-.577 3.85-.921 6.26-.921 2.41 0 4.622.344 6.26.921a7.995 7.995 0 0 1 1.49.687V8.642Zm1.5 8.858v-11c0-.724-.418-1.31-.938-1.744-.523-.437-1.236-.797-2.052-1.085-1.638-.578-3.85-.921-6.26-.921-2.41 0-4.622.343-6.26.921-.815.288-1.529.648-2.053 1.085-.52.434-.937 1.02-.937 1.744v11c0 .724.418 1.31.937 1.744.524.437 1.238.797 2.053 1.085 1.638.578 3.85.921 6.26.921 2.41 0 4.622-.343 6.26-.921.816-.288 1.529-.648 2.052-1.085.52-.434.938-1.02.938-1.744Zm-1.5 0c0-.104-.058-.308-.398-.592-.337-.28-.868-.567-1.591-.822-1.439-.508-3.476-.836-5.761-.836s-4.322.328-5.76.836c-.724.255-1.255.541-1.592.822-.34.284-.398.488-.398.592 0 .104.058.308.398.592.337.28.868.567 1.591.822 1.439.508 3.476.836 5.761.836s4.322-.328 5.76-.836c.724-.255 1.255-.541 1.591-.822.341-.284.399-.488.399-.592Z" clip-rule="evenodd"/>
</svg>
